packages/core/src/svgs/tokens/branded/DSETH.svg

<svg width="24" height="24" viewBox="0 0 24 24" fill="none" xmlns="http://www.w3.org/2000/svg">
<path d="M9.36856 17.0632L3.5791 13.5789L9.36856 22V17.0632Z" fill="#FDFEFF"/>
<path d="M14.6313 17.0632L20.4208 13.5789L14.6313 22V17.0632Z" fill="#B6C5C2"/>
<path d="M12.0004 9.10525V2L6.21094 11.4737L12.0004 9.10525Z" fill="#FDFEFF"/>
<path d="M12.0004 8.8421V15.1579L6.21094 11.4737L12.0004 8.8421ZM12.0004 9.10525V2L17.7899 11.4737L12.0004 9.10525Z" fill="#B6C5C2"/>
<path d="M12.0005 8.8421V15.1579L17.79 11.4737L12.0005 8.8421Z" fill="#869193"/>
</svg>

<svg xmlns="http://www.w3.org/2000/svg" width="24" height="24" fill="none" viewBox="0 0 24 24">
    <path fill="#FDFEFF" d="m9.369 17.063-5.79-3.484L9.37 22z"/>
    <path fill="#B6C5C2" d="m14.631 17.063 5.79-3.484L14.63 22z"/>
    <path fill="#FDFEFF" d="M12 9.105V2l-5.79 9.474z"/>
    <path fill="#B6C5C2" d="M12 8.842v6.316l-5.79-3.684zm0 .263V2l5.79 9.474z"/>
    <path fill="#869193" d="M12 8.842v6.316l5.79-3.684z"/>
</svg>
